src/assets/duotone/InfoCircle.svg

<svg width="24" height="24" viewBox="0 0 24 24"  xmlns="http://www.w3.org/2000/svg">
<path opacity="0.4" d="M12 22C17.5228 22 22 17.5228 22 12C22 6.47715 17.5228 2 12 2C6.47715 2 2 6.47715 2 12C2 17.5228 6.47715 22 12 22Z" />
<path d="M12 13.75C12.41 13.75 12.75 13.41 12.75 13V8C12.75 7.59 12.41 7.25 12 7.25C11.59 7.25 11.25 7.59 11.25 8V13C11.25 13.41 11.59 13.75 12 13.75Z" />
<path d="M12.92 15.6199C12.87 15.4999 12.8 15.3899 12.71 15.2899C12.61 15.1999 12.5 15.1299 12.38 15.0799C12.14 14.9799 11.86 14.9799 11.62 15.0799C11.5 15.1299 11.39 15.1999 11.29 15.2899C11.2 15.3899 11.13 15.4999 11.08 15.6199C11.03 15.7399 11 15.8699 11 15.9999C11 16.1299 11.03 16.2599 11.08 16.3799C11.13 16.5099 11.2 16.6099 11.29 16.7099C11.39 16.7999 11.5 16.8699 11.62 16.9199C11.74 16.9699 11.87 16.9999 12 16.9999C12.13 16.9999 12.26 16.9699 12.38 16.9199C12.5 16.8699 12.61 16.7999 12.71 16.7099C12.8 16.6099 12.87 16.5099 12.92 16.3799C12.97 16.2599 13 16.1299 13 15.9999C13 15.8699 12.97 15.7399 12.92 15.6199Z" />
</svg>

<?xml version="1.0" encoding="UTF-8"?>
<svg width="24" height="24" viewBox="0 0 24 24" xmlns="http://www.w3.org/2000/svg">
 <path d="m12 22c5.5228 0 10-4.4772 10-10 0-5.5228-4.4772-10-10-10-5.5228 0-10 4.4772-10 10 0 5.5228 4.4772 10 10 10z" opacity=".4"/>
 <path d="m12 13.75c0.41 0 0.75-0.34 0.75-0.75v-5c0-0.41-0.34-0.75-0.75-0.75s-0.75 0.34-0.75 0.75v5c0 0.41 0.34 0.75 0.75 0.75z"/>
 <path d="m12.92 15.62c-0.05-0.12-0.12-0.23-0.21-0.33-0.1-0.09-0.21-0.16-0.33-0.21-0.24-0.1-0.52-0.1-0.76 0-0.12 0.05-0.23 0.12-0.33 0.21-0.09 0.1-0.16 0.21-0.21 0.33s-0.08 0.25-0.08 0.38 0.03 0.26 0.08 0.38c0.05 0.13 0.12 0.23 0.21 0.33 0.1 0.09 0.21 0.16 0.33 0.21s0.25 0.08 0.38 0.08 0.26-0.03 0.38-0.08 0.23-0.12 0.33-0.21c0.09-0.1 0.16-0.2 0.21-0.33 0.05-0.12 0.08-0.25 0.08-0.38s-0.03-0.26-0.08-0.38z"/>
</svg>
